X:190
%%etbk:tnset id:182,pos:5,rep:3x,ant:
%%etbk:tnset id:59,pos:4,rep:3x,ant:
%%etbk:wsite http://www.thesession.org/tunes/display/188
%%etbk:skill ?
%%etbk:pldat 2013-10-29T15:42,2013-10-27T14:34,2013-10-18T16:22,2013-10-15T18:05,2013-10-10T19:54
T: Glass Of Beer, The
Z: Piano Box Version by Martin Fleischmann
H: Created 2013-02-19 /  Last Modified 2013-02-19
M: 4/4
L: 1/8
R: reel
K: Bmin
|: "bm"!3!f!1!B!2!B!1!B !3!fB!5!aB | !3!f!1!B!2!B!1!B "f#m"!2!ee!1!de | "bm"!3!f!1!B !3!(3B!2!B!1!B !3!f2fe |1 !1!dfaf "f#m"!2!e{g}ede:|2 !1!dfaf "A"!2!e{f}ee2||
|: "D"!1!d3e !3!f2{g}fe | !1!def!1!d "A"!5!e!3!cB!1!A | "D"!3!d!2!c!1!de !3!fgfe | !1!dfaf "A"!2!e{f}ee2 :|
